images/50715593.svg

<?xml version="1.0" encoding="UTF-8"?>
<svg xmlns="http://www.w3.org/2000/svg" xmlns:xlink="http://www.w3.org/1999/xlink" width="300pt" height="300pt" viewBox="0 0 300 300" version="1.1">
<defs>
<g>
<symbol overflow="visible" id="glyph0-0">
<path style="stroke:none;" d="M 0.453125 1.59375 L 0.453125 -6.34375 L 4.953125 -6.34375 L 4.953125 1.59375 Z M 0.953125 1.09375 L 4.453125 1.09375 L 4.453125 -5.84375 L 0.953125 -5.84375 Z M 0.953125 1.09375 "/>
</symbol>
<symbol overflow="visible" id="glyph0-1">
<path style="stroke:none;" d="M 0.890625 -6.5625 L 4.65625 -6.5625 L 4.65625 -5.8125 L 1.765625 -5.8125 L 1.765625 -3.875 L 4.375 -3.875 L 4.375 -3.140625 L 1.765625 -3.140625 L 1.765625 0 L 0.890625 0 Z M 0.890625 -6.5625 "/>
</symbol>
<symbol overflow="visible" id="glyph0-2">
<path style="stroke:none;" d="M 0.890625 -6.5625 L 2.078125 -6.5625 L 4.984375 -1.078125 L 4.984375 -6.5625 L 5.84375 -6.5625 L 5.84375 0 L 4.65625 0 L 1.75 -5.484375 L 1.75 0 L 0.890625 0 Z M 0.890625 -6.5625 "/>
</symbol>
<symbol overflow="visible" id="glyph0-3">
<path style="stroke:none;" d="M 3.546875 -5.953125 C 2.898438 -5.953125 2.382812 -5.710938 2 -5.234375 C 1.625 -4.753906 1.4375 -4.101562 1.4375 -3.28125 C 1.4375 -2.445312 1.625 -1.789062 2 -1.3125 C 2.382812 -0.832031 2.898438 -0.59375 3.546875 -0.59375 C 4.191406 -0.59375 4.703125 -0.832031 5.078125 -1.3125 C 5.453125 -1.789062 5.640625 -2.445312 5.640625 -3.28125 C 5.640625 -4.101562 5.453125 -4.753906 5.078125 -5.234375 C 4.703125 -5.710938 4.191406 -5.953125 3.546875 -5.953125 Z M 3.546875 -6.6875 C 4.460938 -6.6875 5.195312 -6.375 5.75 -5.75 C 6.300781 -5.132812 6.578125 -4.3125 6.578125 -3.28125 C 6.578125 -2.238281 6.300781 -1.410156 5.75 -0.796875 C 5.195312 -0.179688 4.460938 0.125 3.546875 0.125 C 2.617188 0.125 1.878906 -0.179688 1.328125 -0.796875 C 0.773438 -1.410156 0.5 -2.238281 0.5 -3.28125 C 0.5 -4.3125 0.773438 -5.132812 1.328125 -5.75 C 1.878906 -6.375 2.617188 -6.6875 3.546875 -6.6875 Z M 3.546875 -6.6875 "/>
</symbol>
<symbol overflow="visible" id="glyph0-4">
<path style="stroke:none;" d="M 0.890625 -6.5625 L 1.765625 -6.5625 L 1.765625 -3.875 L 5 -3.875 L 5 -6.5625 L 5.890625 -6.5625 L 5.890625 0 L 5 0 L 5 -3.125 L 1.765625 -3.125 L 1.765625 0 L 0.890625 0 Z M 0.890625 -6.5625 "/>
</symbol>
</g>
</defs>
<g id="surface22841">
<rect x="0" y="0" width="300" height="300" style="fill:rgb(100%,100%,100%);fill-opacity:1;stroke:none;"/>
<path style="fill:none;stroke-width:1.2;stroke-linecap:butt;stroke-linejoin:miter;stroke:rgb(20%,80%,80%);stroke-opacity:1;stroke-miterlimit:10;" d="M 63.242188 195.246094 L 61.347656 184.558594 "/>
<path style="fill:none;stroke-width:1.2;stroke-linecap:butt;stroke-linejoin:miter;stroke:rgb(0%,0%,0%);stroke-opacity:1;stroke-miterlimit:10;" d="M 61.347656 184.558594 L 59.449219 173.875 "/>
<path style=" stroke:none;fill-rule:nonzero;fill:rgb(100%,100%,100%);fill-opacity:1;" d="M 60.242188 189.746094 L 66.242188 189.746094 L 66.242188 200.746094 L 60.242188 200.746094 Z M 60.242188 189.746094 "/>
<g style="fill:rgb(20%,80%,80%);fill-opacity:1;">
  <use xlink:href="#glyph0-1" x="60.242188" y="198.40918"/>
</g>
<path style="fill:none;stroke-width:1.2;stroke-linecap:butt;stroke-linejoin:miter;stroke:rgb(0%,0%,0%);stroke-opacity:1;stroke-miterlimit:10;" d="M 59.449219 173.875 L 39.042969 166.476562 "/>
<path style="fill:none;stroke-width:1.2;stroke-linecap:butt;stroke-linejoin:miter;stroke:rgb(0%,0%,0%);stroke-opacity:1;stroke-miterlimit:10;" d="M 59.148438 168.335938 L 42.824219 162.417969 "/>
<path style="fill:none;stroke-width:1.2;stroke-linecap:butt;stroke-linejoin:miter;stroke:rgb(0%,0%,0%);stroke-opacity:1;stroke-miterlimit:10;" d="M 76.058594 159.90625 L 59.449219 173.875 "/>
<path style="fill:none;stroke-width:1.2;stroke-linecap:butt;stroke-linejoin:miter;stroke:rgb(0%,0%,0%);stroke-opacity:1;stroke-miterlimit:10;" d="M 39.042969 166.476562 L 35.25 145.109375 "/>
<path style="fill:none;stroke-width:1.2;stroke-linecap:butt;stroke-linejoin:miter;stroke:rgb(0%,0%,0%);stroke-opacity:1;stroke-miterlimit:10;" d="M 35.25 145.109375 L 51.859375 131.136719 "/>
<path style="fill:none;stroke-width:1.2;stroke-linecap:butt;stroke-linejoin:miter;stroke:rgb(0%,0%,0%);stroke-opacity:1;stroke-miterlimit:10;" d="M 40.199219 147.621094 L 53.484375 136.441406 "/>
<path style="fill:none;stroke-width:1.2;stroke-linecap:butt;stroke-linejoin:miter;stroke:rgb(0%,0%,0%);stroke-opacity:1;stroke-miterlimit:10;" d="M 51.859375 131.136719 L 72.261719 138.535156 "/>
<path style="fill:none;stroke-width:1.2;stroke-linecap:butt;stroke-linejoin:miter;stroke:rgb(0%,0%,0%);stroke-opacity:1;stroke-miterlimit:10;" d="M 72.261719 138.535156 L 88.871094 124.5625 "/>
<path style="fill:none;stroke-width:1.2;stroke-linecap:butt;stroke-linejoin:miter;stroke:rgb(0%,0%,0%);stroke-opacity:1;stroke-miterlimit:10;" d="M 72.261719 138.535156 L 76.058594 159.90625 "/>
<path style="fill:none;stroke-width:1.2;stroke-linecap:butt;stroke-linejoin:miter;stroke:rgb(0%,0%,0%);stroke-opacity:1;stroke-miterlimit:10;" d="M 67.613281 141.566406 L 70.648438 158.660156 "/>
<path style="fill:none;stroke-width:1.2;stroke-linecap:butt;stroke-linejoin:miter;stroke:rgb(0%,0%,0%);stroke-opacity:1;stroke-miterlimit:10;" d="M 76.058594 159.90625 L 96.460938 167.300781 "/>
<path style="fill:none;stroke-width:1.2;stroke-linecap:butt;stroke-linejoin:miter;stroke:rgb(0%,0%,0%);stroke-opacity:1;stroke-miterlimit:10;" d="M 96.460938 167.300781 L 105.449219 161.222656 "/>
<path style="fill:none;stroke-width:1.2;stroke-linecap:butt;stroke-linejoin:miter;stroke:rgb(0%,0%,100%);stroke-opacity:1;stroke-miterlimit:10;" d="M 105.449219 161.222656 L 114.4375 155.144531 "/>
<path style="fill:none;stroke-width:1.2;stroke-linecap:butt;stroke-linejoin:miter;stroke:rgb(0%,0%,100%);stroke-opacity:1;stroke-miterlimit:10;" d="M 102.46875 188.15625 L 99.464844 177.730469 "/>
<path style="fill:none;stroke-width:1.2;stroke-linecap:butt;stroke-linejoin:miter;stroke:rgb(0%,0%,0%);stroke-opacity:1;stroke-miterlimit:10;" d="M 99.464844 177.730469 L 96.460938 167.300781 "/>
<path style="fill:none;stroke-width:1.2;stroke-linecap:butt;stroke-linejoin:miter;stroke:rgb(0%,0%,100%);stroke-opacity:1;stroke-miterlimit:10;" d="M 106.773438 184.660156 L 104.371094 176.316406 "/>
<path style="fill:none;stroke-width:1.2;stroke-linecap:butt;stroke-linejoin:miter;stroke:rgb(0%,0%,0%);stroke-opacity:1;stroke-miterlimit:10;" d="M 104.371094 176.316406 L 101.96875 167.976562 "/>
<path style="fill:none;stroke-width:1.2;stroke-linecap:butt;stroke-linejoin:miter;stroke:rgb(0%,0%,100%);stroke-opacity:1;stroke-miterlimit:10;" d="M 114.4375 155.144531 L 117.433594 133.648438 "/>
<path style="fill:none;stroke-width:1.2;stroke-linecap:butt;stroke-linejoin:miter;stroke:rgb(0%,0%,0%);stroke-opacity:1;stroke-miterlimit:10;" d="M 131.558594 168.484375 L 123 161.816406 "/>
<path style="fill:none;stroke-width:1.2;stroke-linecap:butt;stroke-linejoin:miter;stroke:rgb(0%,0%,100%);stroke-opacity:1;stroke-miterlimit:10;" d="M 123 161.816406 L 114.4375 155.144531 "/>
<path style=" stroke:none;fill-rule:nonzero;fill:rgb(100%,100%,100%);fill-opacity:1;" d="M 111.4375 149.644531 L 118.4375 149.644531 L 118.4375 160.644531 L 111.4375 160.644531 Z M 111.4375 149.644531 "/>
<g style="fill:rgb(0%,0%,100%);fill-opacity:1;">
  <use xlink:href="#glyph0-2" x="111.4375" y="158.307617"/>
</g>
<path style="fill:none;stroke-width:1.2;stroke-linecap:butt;stroke-linejoin:miter;stroke:rgb(0%,0%,100%);stroke-opacity:1;stroke-miterlimit:10;" d="M 117.433594 133.648438 L 108.875 126.976562 "/>
<path style="fill:none;stroke-width:1.2;stroke-linecap:butt;stroke-linejoin:miter;stroke:rgb(0%,0%,0%);stroke-opacity:1;stroke-miterlimit:10;" d="M 108.875 126.976562 L 100.316406 120.308594 "/>
<path style="fill:none;stroke-width:1.2;stroke-linecap:butt;stroke-linejoin:miter;stroke:rgb(0%,0%,100%);stroke-opacity:1;stroke-miterlimit:10;" d="M 117.433594 133.648438 L 127.488281 129.570312 "/>
<path style="fill:none;stroke-width:1.2;stroke-linecap:butt;stroke-linejoin:miter;stroke:rgb(0%,0%,0%);stroke-opacity:1;stroke-miterlimit:10;" d="M 127.488281 129.570312 L 137.546875 125.492188 "/>
<path style=" stroke:none;fill-rule:nonzero;fill:rgb(100%,100%,100%);fill-opacity:1;" d="M 114.433594 128.148438 L 121.433594 128.148438 L 121.433594 139.148438 L 114.433594 139.148438 Z M 114.433594 128.148438 "/>
<g style="fill:rgb(0%,0%,100%);fill-opacity:1;">
  <use xlink:href="#glyph0-2" x="114.433594" y="136.811523"/>
</g>
<path style="fill:none;stroke-width:1.2;stroke-linecap:butt;stroke-linejoin:miter;stroke:rgb(0%,0%,0%);stroke-opacity:1;stroke-miterlimit:10;" d="M 140.074219 125.847656 L 141.574219 115.097656 "/>
<path style="fill:none;stroke-width:1.2;stroke-linecap:butt;stroke-linejoin:miter;stroke:rgb(100%,0%,0%);stroke-opacity:1;stroke-miterlimit:10;" d="M 141.574219 115.097656 L 143.070312 104.351562 "/>
<path style="fill:none;stroke-width:1.2;stroke-linecap:butt;stroke-linejoin:miter;stroke:rgb(0%,0%,0%);stroke-opacity:1;stroke-miterlimit:10;" d="M 135.019531 125.140625 L 136.515625 114.394531 "/>
<path style="fill:none;stroke-width:1.2;stroke-linecap:butt;stroke-linejoin:miter;stroke:rgb(100%,0%,0%);stroke-opacity:1;stroke-miterlimit:10;" d="M 136.515625 114.394531 L 138.011719 103.644531 "/>
<path style="fill:none;stroke-width:1.2;stroke-linecap:butt;stroke-linejoin:miter;stroke:rgb(0%,0%,0%);stroke-opacity:1;stroke-miterlimit:10;" d="M 137.546875 125.492188 L 154.664062 138.835938 "/>
<path style=" stroke:none;fill-rule:nonzero;fill:rgb(100%,100%,100%);fill-opacity:1;" d="M 136.539062 98.496094 L 144.539062 98.496094 L 144.539062 109.496094 L 136.539062 109.496094 Z M 136.539062 98.496094 "/>
<g style="fill:rgb(100%,0%,0%);fill-opacity:1;">
  <use xlink:href="#glyph0-3" x="136.539062" y="107.15918"/>
</g>
<path style="fill:none;stroke-width:1.2;stroke-linecap:butt;stroke-linejoin:miter;stroke:rgb(0%,0%,0%);stroke-opacity:1;stroke-miterlimit:10;" d="M 154.664062 138.835938 L 151.671875 160.332031 "/>
<path style="fill:none;stroke-width:1.2;stroke-linecap:butt;stroke-linejoin:miter;stroke:rgb(0%,0%,0%);stroke-opacity:1;stroke-miterlimit:10;" d="M 149.308594 140.28125 L 146.914062 157.476562 "/>
<path style="fill:none;stroke-width:1.2;stroke-linecap:butt;stroke-linejoin:miter;stroke:rgb(0%,0%,0%);stroke-opacity:1;stroke-miterlimit:10;" d="M 154.664062 138.835938 L 174.777344 130.679688 "/>
<path style="fill:none;stroke-width:1.2;stroke-linecap:butt;stroke-linejoin:miter;stroke:rgb(0%,0%,0%);stroke-opacity:1;stroke-miterlimit:10;" d="M 151.671875 160.332031 L 131.558594 168.484375 "/>
<path style="fill:none;stroke-width:1.2;stroke-linecap:butt;stroke-linejoin:miter;stroke:rgb(0%,0%,0%);stroke-opacity:1;stroke-miterlimit:10;" d="M 131.558594 168.484375 L 127.859375 178.6875 "/>
<path style="fill:none;stroke-width:1.2;stroke-linecap:butt;stroke-linejoin:miter;stroke:rgb(0%,0%,100%);stroke-opacity:1;stroke-miterlimit:10;" d="M 127.859375 178.6875 L 124.160156 188.890625 "/>
<path style="fill:none;stroke-width:1.2;stroke-linecap:butt;stroke-linejoin:miter;stroke:rgb(0%,0%,0%);stroke-opacity:1;stroke-miterlimit:10;" d="M 126.015625 168.785156 L 123.058594 176.945312 "/>
<path style="fill:none;stroke-width:1.2;stroke-linecap:butt;stroke-linejoin:miter;stroke:rgb(0%,0%,100%);stroke-opacity:1;stroke-miterlimit:10;" d="M 123.058594 176.945312 L 120.097656 185.109375 "/>
<path style="fill:none;stroke-width:1.2;stroke-linecap:butt;stroke-linejoin:miter;stroke:rgb(0%,0%,100%);stroke-opacity:1;stroke-miterlimit:10;" d="M 124.160156 188.890625 L 102.46875 188.15625 "/>
<path style=" stroke:none;fill-rule:nonzero;fill:rgb(100%,100%,100%);fill-opacity:1;" d="M 121.160156 183.390625 L 128.160156 183.390625 L 128.160156 194.390625 L 121.160156 194.390625 Z M 121.160156 183.390625 "/>
<g style="fill:rgb(0%,0%,100%);fill-opacity:1;">
  <use xlink:href="#glyph0-2" x="121.160156" y="192.053711"/>
</g>
<path style=" stroke:none;fill-rule:nonzero;fill:rgb(100%,100%,100%);fill-opacity:1;" d="M 99.46875 182.65625 L 106.46875 182.65625 L 106.46875 193.65625 L 99.46875 193.65625 Z M 99.46875 182.65625 "/>
<g style="fill:rgb(0%,0%,100%);fill-opacity:1;">
  <use xlink:href="#glyph0-2" x="99.46875" y="191.319336"/>
</g>
<path style="fill:none;stroke-width:1.2;stroke-linecap:butt;stroke-linejoin:miter;stroke:rgb(0%,0%,0%);stroke-opacity:1;stroke-miterlimit:10;" d="M 174.777344 130.679688 L 191.898438 144.019531 "/>
<path style="fill:none;stroke-width:1.2;stroke-linecap:butt;stroke-linejoin:miter;stroke:rgb(0%,0%,0%);stroke-opacity:1;stroke-miterlimit:10;" d="M 179.628906 127.984375 L 193.324219 138.660156 "/>
<path style="fill:none;stroke-width:1.2;stroke-linecap:butt;stroke-linejoin:miter;stroke:rgb(0%,0%,0%);stroke-opacity:1;stroke-miterlimit:10;" d="M 177.773438 109.183594 L 174.777344 130.679688 "/>
<path style="fill:none;stroke-width:1.2;stroke-linecap:butt;stroke-linejoin:miter;stroke:rgb(0%,0%,0%);stroke-opacity:1;stroke-miterlimit:10;" d="M 191.898438 144.019531 L 212.011719 135.867188 "/>
<path style="fill:none;stroke-width:1.2;stroke-linecap:butt;stroke-linejoin:miter;stroke:rgb(0%,0%,0%);stroke-opacity:1;stroke-miterlimit:10;" d="M 212.011719 135.867188 L 215.003906 114.371094 "/>
<path style="fill:none;stroke-width:1.2;stroke-linecap:butt;stroke-linejoin:miter;stroke:rgb(0%,0%,0%);stroke-opacity:1;stroke-miterlimit:10;" d="M 207.253906 133.011719 L 209.648438 115.816406 "/>
<path style="fill:none;stroke-width:1.2;stroke-linecap:butt;stroke-linejoin:miter;stroke:rgb(0%,0%,0%);stroke-opacity:1;stroke-miterlimit:10;" d="M 212.011719 135.867188 L 229.128906 149.207031 "/>
<path style="fill:none;stroke-width:1.2;stroke-linecap:butt;stroke-linejoin:miter;stroke:rgb(0%,0%,0%);stroke-opacity:1;stroke-miterlimit:10;" d="M 215.003906 114.371094 L 197.886719 101.027344 "/>
<path style="fill:none;stroke-width:1.2;stroke-linecap:butt;stroke-linejoin:miter;stroke:rgb(0%,0%,0%);stroke-opacity:1;stroke-miterlimit:10;" d="M 197.886719 101.027344 L 177.773438 109.183594 "/>
<path style="fill:none;stroke-width:1.2;stroke-linecap:butt;stroke-linejoin:miter;stroke:rgb(0%,0%,0%);stroke-opacity:1;stroke-miterlimit:10;" d="M 197.792969 106.578125 L 181.703125 113.101562 "/>
<path style="fill:none;stroke-width:1.2;stroke-linecap:butt;stroke-linejoin:miter;stroke:rgb(0%,0%,0%);stroke-opacity:1;stroke-miterlimit:10;" d="M 177.773438 109.183594 L 160.652344 95.84375 "/>
<path style="fill:none;stroke-width:1.2;stroke-linecap:butt;stroke-linejoin:miter;stroke:rgb(0%,0%,0%);stroke-opacity:1;stroke-miterlimit:10;" d="M 230.089844 151.574219 L 240.144531 147.496094 "/>
<path style="fill:none;stroke-width:1.2;stroke-linecap:butt;stroke-linejoin:miter;stroke:rgb(100%,0%,0%);stroke-opacity:1;stroke-miterlimit:10;" d="M 240.144531 147.496094 L 250.203125 143.417969 "/>
<path style="fill:none;stroke-width:1.2;stroke-linecap:butt;stroke-linejoin:miter;stroke:rgb(0%,0%,0%);stroke-opacity:1;stroke-miterlimit:10;" d="M 228.171875 146.839844 L 238.226562 142.761719 "/>
<path style="fill:none;stroke-width:1.2;stroke-linecap:butt;stroke-linejoin:miter;stroke:rgb(100%,0%,0%);stroke-opacity:1;stroke-miterlimit:10;" d="M 238.226562 142.761719 L 248.285156 138.6875 "/>
<path style="fill:none;stroke-width:1.2;stroke-linecap:butt;stroke-linejoin:miter;stroke:rgb(0%,0%,0%);stroke-opacity:1;stroke-miterlimit:10;" d="M 229.128906 149.207031 L 227.632812 159.953125 "/>
<path style="fill:none;stroke-width:1.2;stroke-linecap:butt;stroke-linejoin:miter;stroke:rgb(0%,0%,100%);stroke-opacity:1;stroke-miterlimit:10;" d="M 227.632812 159.953125 L 226.136719 170.703125 "/>
<path style=" stroke:none;fill-rule:nonzero;fill:rgb(100%,100%,100%);fill-opacity:1;" d="M 245.242188 135.550781 L 253.242188 135.550781 L 253.242188 146.550781 L 245.242188 146.550781 Z M 245.242188 135.550781 "/>
<g style="fill:rgb(100%,0%,0%);fill-opacity:1;">
  <use xlink:href="#glyph0-3" x="245.242188" y="144.213867"/>
</g>
<path style="fill:none;stroke-width:1.2;stroke-linecap:butt;stroke-linejoin:miter;stroke:rgb(0%,0%,100%);stroke-opacity:1;stroke-miterlimit:10;" d="M 226.136719 170.703125 L 234.695312 177.375 "/>
<path style="fill:none;stroke-width:1.2;stroke-linecap:butt;stroke-linejoin:miter;stroke:rgb(0%,0%,0%);stroke-opacity:1;stroke-miterlimit:10;" d="M 234.695312 177.375 L 243.253906 184.042969 "/>
<path style=" stroke:none;fill-rule:nonzero;fill:rgb(100%,100%,100%);fill-opacity:1;" d="M 219.136719 165.203125 L 233.136719 165.203125 L 233.136719 176.203125 L 219.136719 176.203125 Z M 219.136719 165.203125 "/>
<g style="fill:rgb(0%,0%,100%);fill-opacity:1;">
  <use xlink:href="#glyph0-2" x="219.136719" y="173.866211"/>
  <use xlink:href="#glyph0-4" x="226.114258" y="173.866211"/>
</g>
<path style="fill:none;stroke-width:1.2;stroke-linecap:butt;stroke-linejoin:miter;stroke:rgb(0%,0%,0%);stroke-opacity:1;stroke-miterlimit:10;" d="M 243.253906 184.042969 L 264.75 187.039062 "/>
<path style="fill:none;stroke-width:1.2;stroke-linecap:butt;stroke-linejoin:miter;stroke:rgb(0%,0%,0%);stroke-opacity:1;stroke-miterlimit:10;" d="M 251.410156 204.15625 L 243.253906 184.042969 "/>
<path style="fill:none;stroke-width:1.2;stroke-linecap:butt;stroke-linejoin:miter;stroke:rgb(0%,0%,0%);stroke-opacity:1;stroke-miterlimit:10;" d="M 264.75 187.039062 L 251.410156 204.15625 "/>
</g>
</svg>

<svg xmlns="http://www.w3.org/2000/svg" xmlns:xlink="http://www.w3.org/1999/xlink" width="300pt" height="300pt" viewBox="0 0 300 300"><defs><symbol overflow="visible"><path d="M.453 1.594v-7.938h4.5v7.938zm.5-.5h3.5v-6.938h-3.5zm0 0"/></symbol><symbol overflow="visible" id="a"><path d="M.89-6.563h3.766v.75h-2.89v1.938h2.61v.734h-2.61V0H.89zm0 0"/></symbol><symbol overflow="visible" id="b"><path d="M.89-6.563H2.08l2.906 5.485v-5.484h.86V0H4.656L1.75-5.484V0H.89zm0 0"/></symbol><symbol overflow="visible" id="c"><path d="M3.547-5.953c-.65 0-1.164.242-1.547.72-.375.48-.563 1.13-.563 1.952 0 .835.188 1.49.563 1.967.383.48.898.72 1.547.72.644 0 1.156-.24 1.53-.72.376-.476.564-1.132.564-1.968 0-.822-.187-1.474-.562-1.954-.375-.477-.887-.72-1.53-.72zm0-.734c.914 0 1.648.312 2.203.937.55.617.828 1.438.828 2.47 0 1.042-.277 1.87-.828 2.483-.555.617-1.29.922-2.203.922-.93 0-1.668-.305-2.22-.922C.774-1.41.5-2.237.5-3.28c0-1.033.273-1.853.828-2.47.55-.625 1.29-.938 2.22-.938zm0 0"/></symbol><symbol overflow="visible" id="d"><path d="M.89-6.563h.876v2.688H5v-2.688h.89V0H5v-3.125H1.766V0H.89zm0 0"/></symbol></defs><g><path fill="#fff" d="M0 0h300v300H0z"/><path d="M63.242 195.246l-1.894-10.687" stroke-width="1.2" stroke="#3cc" stroke-miterlimit="10" fill="none"/><path d="M61.348 184.56l-1.9-10.685" stroke-width="1.2" stroke="#000" stroke-miterlimit="10" fill="none"/><path d="M60.242 189.746h6v11h-6zm0 0" fill="#fff"/><use xlink:href="#a" x="60.242" y="198.409" fill="#3cc"/><path d="M59.45 173.875l-20.407-7.398M59.148 168.336l-16.324-5.918M76.06 159.906l-16.61 13.97M39.043 166.477L35.25 145.11M35.25 145.11l16.61-13.973M40.2 147.62l13.284-11.18M51.86 131.137l20.402 7.398M72.262 138.535l16.61-13.972M72.262 138.535l3.797 21.37M67.613 141.566l3.035 17.094M76.06 159.906l20.4 7.395M96.46 167.3l8.99-6.077" stroke-width="1.2" stroke="#000" stroke-miterlimit="10" fill="none"/><path d="M105.45 161.223l8.987-6.078M102.47 188.156l-3.005-10.426" stroke-width="1.2" stroke="#00f" stroke-miterlimit="10" fill="none"/><path d="M99.465 177.73L96.46 167.3" stroke-width="1.2" stroke="#000" stroke-miterlimit="10" fill="none"/><path d="M106.773 184.66l-2.402-8.344" stroke-width="1.2" stroke="#00f" stroke-miterlimit="10" fill="none"/><path d="M104.37 176.316l-2.4-8.34" stroke-width="1.2" stroke="#000" stroke-miterlimit="10" fill="none"/><path d="M114.438 155.145l2.996-21.497" stroke-width="1.2" stroke="#00f" stroke-miterlimit="10" fill="none"/><path d="M131.56 168.484l-8.56-6.668" stroke-width="1.2" stroke="#000" stroke-miterlimit="10" fill="none"/><path d="M123 161.816l-8.563-6.67" stroke-width="1.2" stroke="#00f" stroke-miterlimit="10" fill="none"/><path d="M111.438 149.645h7v11h-7zm0 0" fill="#fff"/><use xlink:href="#b" x="111.438" y="158.308" fill="#00f"/><path d="M117.434 133.648l-8.56-6.67" stroke-width="1.2" stroke="#00f" stroke-miterlimit="10" fill="none"/><path d="M108.875 126.977l-8.56-6.668" stroke-width="1.2" stroke="#000" stroke-miterlimit="10" fill="none"/><path d="M117.434 133.648l10.054-4.078" stroke-width="1.2" stroke="#00f" stroke-miterlimit="10" fill="none"/><path d="M127.488 129.57l10.06-4.078" stroke-width="1.2" stroke="#000" stroke-miterlimit="10" fill="none"/><path d="M114.434 128.148h7v11h-7zm0 0" fill="#fff"/><use xlink:href="#b" x="114.434" y="136.812" fill="#00f"/><path d="M140.074 125.848l1.5-10.75" stroke-width="1.2" stroke="#000" stroke-miterlimit="10" fill="none"/><path d="M141.574 115.098l1.496-10.746" stroke-width="1.2" stroke="#f00" stroke-miterlimit="10" fill="none"/><path d="M135.02 125.14l1.496-10.745" stroke-width="1.2" stroke="#000" stroke-miterlimit="10" fill="none"/><path d="M136.516 114.395l1.496-10.75" stroke-width="1.2" stroke="#f00" stroke-miterlimit="10" fill="none"/><path d="M137.547 125.492l17.117 13.344" stroke-width="1.2" stroke="#000" stroke-miterlimit="10" fill="none"/><path d="M136.54 98.496h8v11h-8zm0 0" fill="#fff"/><use xlink:href="#c" x="136.539" y="107.159" fill="#f00"/><path d="M154.664 138.836l-2.992 21.496M149.31 140.28l-2.396 17.197M154.664 138.836l20.113-8.156M151.672 160.332l-20.113 8.152M131.56 168.484l-3.7 10.203" stroke-width="1.2" stroke="#000" stroke-miterlimit="10" fill="none"/><path d="M127.86 178.688l-3.7 10.203" stroke-width="1.2" stroke="#00f" stroke-miterlimit="10" fill="none"/><path d="M126.016 168.785l-2.957 8.16" stroke-width="1.2" stroke="#000" stroke-miterlimit="10" fill="none"/><path d="M123.06 176.945l-2.962 8.164M124.16 188.89l-21.69-.734" stroke-width="1.2" stroke="#00f" stroke-miterlimit="10" fill="none"/><path d="M121.16 183.39h7v11h-7zm0 0" fill="#fff"/><use xlink:href="#b" x="121.16" y="192.054" fill="#00f"/><path d="M99.47 182.656h7v11h-7zm0 0" fill="#fff"/><use xlink:href="#b" x="99.469" y="191.319" fill="#00f"/><path d="M174.777 130.68l17.12 13.34M179.63 127.984l13.694 10.676M177.773 109.184l-2.996 21.496M191.898 144.02l20.114-8.153M212.012 135.867l2.992-21.496M207.254 133.012l2.394-17.196M212.012 135.867l17.117 13.34M215.004 114.37l-17.117-13.343M197.887 101.027l-20.114 8.157M197.793 106.578l-16.09 6.524M177.773 109.184l-17.12-13.34M230.09 151.574l10.055-4.078" stroke-width="1.2" stroke="#000" stroke-miterlimit="10" fill="none"/><path d="M240.145 147.496l10.058-4.078" stroke-width="1.2" stroke="#f00" stroke-miterlimit="10" fill="none"/><path d="M228.172 146.84l10.055-4.078" stroke-width="1.2" stroke="#000" stroke-miterlimit="10" fill="none"/><path d="M238.227 142.762l10.058-4.075" stroke-width="1.2" stroke="#f00" stroke-miterlimit="10" fill="none"/><path d="M229.13 149.207l-1.497 10.746" stroke-width="1.2" stroke="#000" stroke-miterlimit="10" fill="none"/><path d="M227.633 159.953l-1.496 10.75" stroke-width="1.2" stroke="#00f" stroke-miterlimit="10" fill="none"/><path d="M245.242 135.55h8v11h-8zm0 0" fill="#fff"/><use xlink:href="#c" x="245.242" y="144.214" fill="#f00"/><path d="M226.137 170.703l8.558 6.672" stroke-width="1.2" stroke="#00f" stroke-miterlimit="10" fill="none"/><path d="M234.695 177.375l8.56 6.668" stroke-width="1.2" stroke="#000" stroke-miterlimit="10" fill="none"/><path d="M219.137 165.203h14v11h-14zm0 0" fill="#fff"/><g fill="#00f"><use xlink:href="#b" x="219.137" y="173.866"/><use xlink:href="#d" x="226.114" y="173.866"/></g><path d="M243.254 184.043l21.496 2.996M251.41 204.156l-8.156-20.113M264.75 187.04l-13.34 17.116" stroke-width="1.2" stroke="#000" stroke-miterlimit="10" fill="none"/></g></svg>
